public/icons/hw.svg

<svg width="81" height="56" viewBox="0 0 81 56" fill="none" xmlns="http://www.w3.org/2000/svg">
<path d="M80.5458 5.96106C80.5442 4.38094 79.9159 2.86599 78.7988 1.74849C77.6817 0.630989 76.167 0.00218201 74.5868 0H5.96002C4.37973 0.00190936 2.86473 0.630594 1.74739 1.74812C0.630058 2.86566 0.00163624 4.38077 7.16107e-08 5.96106V17.3329C-0.000241174 18.8875 0.609068 20.3803 1.69712 21.4907C0.609068 22.6011 -0.000241174 24.0939 7.16107e-08 25.6485V37.0235C0.00253152 38.2884 0.406343 39.5199 1.15331 40.5407C1.90028 41.5616 2.95189 42.3191 4.15677 42.7042V47.9285C4.15663 48.1654 4.20318 48.3999 4.29375 48.6188C4.38433 48.8376 4.51715 49.0365 4.68463 49.2039C4.8521 49.3714 5.05094 49.5042 5.26978 49.5948C5.48863 49.6854 5.72318 49.7319 5.96002 49.7318H10.1209V54.1111C10.1208 54.348 10.1673 54.5825 10.2579 54.8014C10.3485 55.0202 10.4813 55.2191 10.6488 55.3865C10.8162 55.554 11.0151 55.6868 11.2339 55.7774C11.4528 55.868 11.6873 55.9145 11.9242 55.9144H18.1068C18.3436 55.9145 18.5782 55.868 18.797 55.7774C19.0158 55.6868 19.2147 55.554 19.3822 55.3865C19.5496 55.2191 19.6825 55.0202 19.773 54.8014C19.8636 54.5825 19.9102 54.348 19.91 54.1111V49.7287H60.6358V54.108C60.6357 54.3449 60.6822 54.5794 60.7728 54.7983C60.8634 55.0171 60.9962 55.216 61.1637 55.3834C61.3311 55.5509 61.53 55.6837 61.7488 55.7743C61.9677 55.8649 62.2022 55.9114 62.4391 55.9113H68.6217C68.8585 55.9114 69.0931 55.8649 69.3119 55.7743C69.5307 55.6837 69.7296 55.5509 69.8971 55.3834C70.0645 55.216 70.1974 55.0171 70.2879 54.7983C70.3785 54.5794 70.4251 54.3449 70.4249 54.108V49.7287H74.5868C74.8237 49.7288 75.0582 49.6823 75.2771 49.5917C75.4959 49.5011 75.6948 49.3683 75.8622 49.2008C76.0297 49.0334 76.1625 48.8345 76.2531 48.6157C76.3437 48.3968 76.3902 48.1623 76.3901 47.9254V42.7011C77.595 42.316 78.6466 41.5585 79.3935 40.5377C80.1405 39.5168 80.5443 38.2853 80.5469 37.0204V25.6485C80.5471 24.0939 79.9378 22.6011 78.8497 21.4907C79.9378 20.3803 80.5471 18.8875 80.5469 17.3329L80.5458 5.96106ZM3.60754 5.96106C3.60809 5.33712 3.85605 4.73886 4.29705 4.29747C4.73804 3.85609 5.33609 3.60761 5.96002 3.60652H74.5868C75.211 3.60733 75.8093 3.8557 76.2505 4.29711C76.6917 4.73853 76.9398 5.33694 76.9403 5.96106V17.3329C76.9398 17.957 76.6917 18.5554 76.2505 18.9969C75.8093 19.4383 75.211 19.6866 74.5868 19.6875H5.96002C5.33591 19.6866 4.7376 19.4383 4.29638 18.9969C3.85516 18.5554 3.60706 17.957 3.60651 17.3329L3.60754 5.96106ZM16.3045 52.3048H13.7285V49.7287H16.3045V52.3048ZM66.8184 52.3048H64.2423V49.7287H66.8184V52.3048ZM7.76431 46.1222V42.9814H72.7846V46.1222H7.76431ZM76.9393 37.0235C76.938 37.6469 76.6896 38.2443 76.2487 38.685C75.8078 39.1258 75.2102 39.3738 74.5868 39.3749H5.96002C5.33662 39.3738 4.73905 39.1258 4.29814 38.685C3.85723 38.2443 3.60891 37.6469 3.60754 37.0235V25.6485C3.60809 25.0246 3.85605 24.4263 4.29705 23.9849C4.73804 23.5435 5.33609 23.2951 5.96002 23.294H74.5868C75.211 23.2948 75.8093 23.5432 76.2505 23.9846C76.6917 24.426 76.9398 25.0244 76.9403 25.6485L76.9393 37.0235Z" fill="white"/>
<path d="M17.7331 16.3478C18.6631 16.3478 19.5722 16.072 20.3454 15.5553C21.1187 15.0386 21.7213 14.3043 22.0772 13.445C22.433 12.5858 22.5261 11.6404 22.3446 10.7283C22.163 9.81618 21.7151 8.9784 21.0575 8.32087C20.3998 7.66335 19.5619 7.21562 18.6498 7.03431C17.7376 6.85301 16.7922 6.94626 15.9331 7.3023C15.0739 7.65833 14.3397 8.26114 13.8232 9.03449C13.3066 9.80784 13.031 10.717 13.0313 11.647C13.0326 12.8935 13.5285 14.0885 14.41 14.9698C15.2915 15.8511 16.4866 16.3467 17.7331 16.3478ZM17.7331 10.5516C17.9497 10.5516 18.1615 10.6159 18.3417 10.7362C18.5218 10.8566 18.6622 11.0277 18.7451 11.2278C18.828 11.428 18.8497 11.6482 18.8074 11.8607C18.7651 12.0732 18.6608 12.2683 18.5076 12.4215C18.3545 12.5747 18.1593 12.679 17.9468 12.7213C17.7343 12.7636 17.5141 12.7419 17.3139 12.659C17.1138 12.576 16.9427 12.4357 16.8224 12.2555C16.702 12.0754 16.6378 11.8636 16.6378 11.647C16.638 11.3566 16.7535 11.0781 16.9589 10.8728C17.1642 10.6674 17.4427 10.5519 17.7331 10.5516Z" fill="white"/>
<path d="M28.6158 13.4504H65.7113C66.1896 13.4504 66.6482 13.2604 66.9864 12.9222C67.3246 12.584 67.5146 12.1254 67.5146 11.6471C67.5146 11.1689 67.3246 10.7102 66.9864 10.372C66.6482 10.0339 66.1896 9.84387 65.7113 9.84387H28.6158C28.1375 9.84387 27.6788 10.0339 27.3407 10.372C27.0025 10.7102 26.8125 11.1689 26.8125 11.6471C26.8125 12.1254 27.0025 12.584 27.3407 12.9222C27.6788 13.2604 28.1375 13.4504 28.6158 13.4504Z" fill="white"/>
<path d="M17.7332 26.6334C16.8031 26.6332 15.8939 26.9088 15.1206 27.4254C14.3472 27.942 13.7444 28.6763 13.3884 29.5355C13.0324 30.3947 12.9392 31.3402 13.1206 32.2523C13.302 33.1645 13.7498 34.0024 14.4074 34.66C15.065 35.3177 15.9029 35.7655 16.8151 35.9469C17.7273 36.1283 18.6727 36.0351 19.5319 35.6791C20.3911 35.3231 21.1254 34.7202 21.642 33.9469C22.1586 33.1735 22.4342 32.2643 22.434 31.3343C22.4324 30.088 21.9366 28.8933 21.0553 28.0121C20.1741 27.1309 18.9794 26.6351 17.7332 26.6334ZM17.7332 32.4296C17.5165 32.4298 17.3046 32.3658 17.1243 32.2455C16.9441 32.1253 16.8035 31.9543 16.7205 31.7542C16.6374 31.554 16.6156 31.3338 16.6577 31.1212C16.6999 30.9087 16.8041 30.7134 16.9572 30.5601C17.1104 30.4068 17.3056 30.3024 17.5181 30.26C17.7306 30.2177 17.9509 30.2393 18.1511 30.3222C18.3513 30.4051 18.5224 30.5455 18.6428 30.7256C18.7632 30.9058 18.8275 31.1176 18.8275 31.3343C18.8272 31.6245 18.7119 31.9028 18.5067 32.1081C18.3016 32.3135 18.0234 32.4291 17.7332 32.4296Z" fill="white"/>
<path d="M65.7113 29.5308H28.6158C28.1375 29.5308 27.6788 29.7207 27.3407 30.0589C27.0025 30.3971 26.8125 30.8558 26.8125 31.334C26.8125 31.8123 27.0025 32.2709 27.3407 32.6091C27.6788 32.9473 28.1375 33.1373 28.6158 33.1373H65.7113C66.1896 33.1373 66.6482 32.9473 66.9864 32.6091C67.3246 32.2709 67.5146 31.8123 67.5146 31.334C67.5146 30.8558 67.3246 30.3971 66.9864 30.0589C66.6482 29.7207 66.1896 29.5308 65.7113 29.5308Z" fill="white"/>
</svg>

<svg xmlns="http://www.w3.org/2000/svg" fill="none" width="81" height="56" viewBox="0 0 81 56"><path d="M80.546 5.961A5.967 5.967 0 0 0 74.586 0H5.96A5.967 5.967 0 0 0 0 5.961v11.372a5.94 5.94 0 0 0 1.697 4.158A5.94 5.94 0 0 0 0 25.648v11.375a5.976 5.976 0 0 0 4.157 5.681v5.224a1.803 1.803 0 0 0 1.803 1.804h4.16v4.38a1.803 1.803 0 0 0 1.804 1.802h6.183a1.802 1.802 0 0 0 1.803-1.803V49.73h40.726v4.379a1.803 1.803 0 0 0 1.803 1.803h6.183a1.802 1.802 0 0 0 1.803-1.803v-4.38h4.162a1.803 1.803 0 0 0 1.803-1.803v-5.224a5.976 5.976 0 0 0 4.157-5.68V25.647a5.94 5.94 0 0 0-1.697-4.157 5.94 5.94 0 0 0 1.697-4.158L80.546 5.96zm-76.938 0A2.357 2.357 0 0 1 5.96 3.607h68.627A2.357 2.357 0 0 1 76.94 5.96v11.372a2.357 2.357 0 0 1-2.353 2.355H5.96a2.357 2.357 0 0 1-2.353-2.355V5.96zm12.697 46.344h-2.576v-2.576h2.576v2.576zm50.513 0h-2.576v-2.576h2.576v2.576zM7.764 46.122v-3.14h65.02v3.14H7.765zm69.175-9.099a2.356 2.356 0 0 1-2.352 2.352H5.96a2.356 2.356 0 0 1-2.352-2.352V25.648a2.357 2.357 0 0 1 2.352-2.354h68.627a2.357 2.357 0 0 1 2.353 2.354v11.375z" fill="#fff"/><path d="M17.733 16.348a4.702 4.702 0 1 0 0-9.403 4.702 4.702 0 0 0 0 9.403zm0-5.796a1.095 1.095 0 1 1 0 2.19 1.095 1.095 0 0 1 0-2.19zm10.883 2.898H65.71a1.803 1.803 0 1 0 0-3.606H28.616a1.803 1.803 0 1 0 0 3.606zM17.734 26.634a4.702 4.702 0 1 0-.002 9.403 4.702 4.702 0 0 0 .002-9.403zm0 5.796a1.096 1.096 0 1 1-.002-2.192 1.096 1.096 0 0 1 .002 2.192zm47.977-2.899H28.616a1.803 1.803 0 0 0 0 3.607H65.71a1.803 1.803 0 1 0 0-3.607z" fill="#fff"/></svg>
